X:1
T:[ID 1-87a]
T:[ID 1-87a]
T:Bezeichnung standardisiert: Die Vier Winde; Vier Winde 17. In dieser Quelle auch als: Die Vier Winde
T:Urheber unbekannt Erstbeleg: vor 1767 (Datum in der schriftlichen Quelle) Datum in der hier transkribierten schriftlichen Quelle: 1775
C:Urheber unbekannt
C:Erstbeleg: vor 1767 (Datum in der schriftlichen Quelle)
C:Datum in der hier transkribierten schriftlichen Quelle: 1775
L:1/8
M:3/4
K:C
V:1 treble 
V:1
 fe f2 g2 | e4 f2 | dcdfed | c4 [FA]2 | [EA][DG][EA][GB]cd | e4 d2 | cG E2 D2 | E6 :: FG | %9
 AAAA A3 G/A/ | BBBB B3 B/c/ | dddd d3 c/d/ | eeee e3 f | gfge f2 ed | cB/A/ FD E2 e2 | %15
 cB/A/ FD E4 :| %16

